X:16591
T:The Controversial Reel
M:C|
L:1/8
Q:240
C:Billy McComiskey
R:reel
A:Baltimore
B:Ceol Rince na hEireann III, 162
D:Green Linnet SIF 1034
K:G
GA|~B3e dB~B2 |gfgb abge|d2 Bd gedB|GABG A2 GA|\
~B3e dB~B2|gfgb abge|dGBd gedB|GBAF G2:|
GA|B2dB ABBA|GEDE GABd|e2 af gedB|GABG A2 GA |\
BddB ABBA|GEDE GABd|bgaf gedB|GBAF G2:|
